X:77
T:Moorfields Hornpipe. ThoH.077
Q:1/2=90
M:C|
L:1/8
B:Thompson's Compleat Collection of 120 Favourite Hornpipes.
Z:Village Music Project, Simon Wilson 2016
O:England.
K:F
(AB)|c2c2c2de|f2c4d2|cfefc2B2-|B2A2A2G2|AFGA Bcde|
f2c4B2|AFGA Bcde|f2a4fe|egced2c=B|c6:|
|:cd|_e4egfe|dcBAB2d=e|f4fagf|edc=Bc2fg|a2Fa g2Eg|
f2Dfe2Ce|d2B,dc2A,c|B2G,BA2c2|dfegA2G2|F6:|

